assets/2023/icons/c.svg

<svg width="16" height="16" viewBox="0 0 16 16" fill="none" xmlns="http://www.w3.org/2000/svg">
<path d="M14.5 5.16065V10.8394C14.5 11.3776 14.2116 11.8747 13.7442 12.1417L8.74421 14.9989C8.28306 15.2624 7.71694 15.2624 7.25579 14.9989L2.25579 12.1417C1.78843 11.8747 1.5 11.3776 1.5 10.8394V5.16065C1.5 4.62236 1.78843 4.12534 2.25579 3.85828L7.25579 1.00114C7.71694 0.737624 8.28306 0.737624 8.74421 1.00114L13.7442 3.85828C14.2116 4.12534 14.5 4.62236 14.5 5.16065Z" fill="#EEE0FF" stroke="#955AE0"/>
<path d="M8.13534 11.5C9.62429 11.5 10.9005 10.6008 11.2148 9.32459H10.1996C9.88534 10.0546 9.10703 10.5767 8.13534 10.5767C6.79625 10.5767 5.8294 9.50345 5.8294 8C5.8294 6.49655 6.79625 5.42334 8.13534 5.42334C9.10703 5.42334 9.88534 5.94544 10.1996 6.67541H11.2148C10.9005 5.39917 9.62429 4.5 8.13534 4.5C6.21614 4.5 4.79004 5.99378 4.79004 8C4.79004 10.0062 6.21614 11.5 8.13534 11.5Z" fill="#955AE0"/>
</svg>

<svg xmlns="http://www.w3.org/2000/svg" width="16" height="16" fill="none" viewBox="0 0 16 16"><path fill="#EEE0FF" stroke="#955AE0" d="M14.5 5.16v5.68a1.5 1.5 0 0 1-.756 1.302l-5 2.857a1.5 1.5 0 0 1-1.488 0l-5-2.857a1.5 1.5 0 0 1-.756-1.303V5.161a1.5 1.5 0 0 1 .756-1.303l5-2.857a1.5 1.5 0 0 1 1.488 0l5 2.857a1.5 1.5 0 0 1 .756 1.303Z"/><path fill="#955AE0" d="M8.135 11.5c1.49 0 2.765-.9 3.08-2.175H10.2c-.315.73-1.093 1.252-2.065 1.252C6.796 10.577 5.83 9.503 5.83 8s.967-2.577 2.306-2.577c.972 0 1.75.522 2.065 1.252h1.015C10.9 5.4 9.625 4.5 8.135 4.5 6.216 4.5 4.79 5.994 4.79 8s1.426 3.5 3.345 3.5"/></svg>
